!!!Genre:	Gas-nign
!!!Mode:	Minor
!!!Listening/dance:	listening
!!!One_Mode:	yes
**kern
*thru
*I"P1
*clefG2
*k[b-e-]
*g:
*M3/4
*>A
8dL
8g
8aJ
=1!|:
4.b-
8g
8ccL
8aJ
=2
4.b-
8g
8aL
8f#XJ
=3
2g
(8qcc#X/
4dd)
=4
4.d
8dL
8g
8aJ
=5
4.b-
8g
(8ccL
8aJ)
=6
4.b-
8g
8aL
8f#XJ
=7
2.g
*>A1
=8
4.gg
8d
8gL
8aJ
*>A2
=:|!
2g
=9||
*>B
4dd
=10!|:
2dd
20ddLL
20ee-
20ff
20gg
20aaJJ
=11
2bb-
24aaLL
24gg
24ff
24ee-
24dd
24ccJJ
=12
2cc
20b-LL
20cc
20dd
20ee-
20ffJJ
=13
2gg
24ffLL
24ee-
24dd
24cc
24b-
24aJJ
=14
4.b-
8a
(12ee-L
12dd)
12ccJ
=15
4.b-
8cc
8aL
8b-J
*>B1
=16
4.g
8a
8b-L
8ccJ
=17
2dd
4dd
*>B2
=18:|!
2.g
=19
2.G
=20||:
*>C
4dd
4bb-
4aa
=21
2gg
4dd
=22
4ee-
4gg
4ff
=23
2cc
4a
=24
4.b-
8a
12ee-L
12dd
12ccJ
=25
4.b-
8cc
8aL
8b-J
*>C1
=26
4.g
8a
8b-L
8ccJ
=27
2.dd
*>C2
=28:|!
2.g
=29
2.G
==
*-
